X:1
T:Papa Stronsay Hymn
T:Papa Stronsay Hymn
T:Oliver Hayes
C:Oliver Hayes
%%score [ ( 1 2 ) ( 3 4 ) ]
L:1/8
Q:1/4=160
M:none
K:D
V:1 treble nm="MusicXML Part"
V:2 treble 
V:3 bass nm="MusicXML Part"
V:4 bass 
V:1
 A4 | d4 c4 B4 A4 | G6 A2 B4 B4 | A6 B2 A4 F4 | E12 A4 | d4 c4 B4 A4 | B6 A2 F4 A4 | B6 A2 F4 E4 | %8
w: 1.My|soul, what dost thou?|An- swer me: love|God, who loves thee|well, love|on- ly does he|ask of thee, canst|thou his love re-|
 F12 |] %9
w: pel?|
V:2
 D4 | F4 G4 G4 F4 | D4 D4 G4 D4 | F4 D4 C2 E2 D4 | C12 D4 | F4 G4 G4 F4 | F4 F4 C4 E4 | %7
 D4 D4 D4 C4 | D12 |] %9
V:3
 F,4 | A,4 C4 D4 D4 | B,6 A,2 G,4 G,4 | A,4 G,2 F,2 E,4 A,4 | A,12 F,4 | A,4 C4 D4 D4 | %6
 D4 B,4 A,4 A,2 E,2 | G,4 B,4 A,4 A,4 | A,12 |] %9
V:4
 D,4 | D,4 E,4 G,4 D4 | B,2 A,2 G,2 F,2 E,4 G,4 | D,4 B,,4 C,4 D,4 | A,,12 D,4 | D,4 E,4 G,4 D4 | %6
 B,4 B,,4 F,4 C,4 | B,,4 G,,4 D,4 A,4 | D,12 |] %9

